svgs/wifianalyzer.svg

<svg xmlns="http://www.w3.org/2000/svg" viewBox="0 0 192 192"><path d="M16.5 95.46c9.206-12.653 21.187-22.945 34.988-30.056A97.985 97.985 0 0 1 96 54.5a97.984 97.984 0 0 1 44.5 10.867c13.8 7.096 25.786 17.373 35 30.01M45.038 117.082c5.828-8.252 13.473-15.001 22.322-19.707A63.073 63.073 0 0 1 96 89.983a63.068 63.068 0 0 1 28.72 7.402c8.872 4.721 16.533 11.496 22.364 19.78M71.538 137.5c3.824-5.151 9.126-8.97 15.17-10.927a30.147 30.147 0 0 1 18.584 0c6.044 1.957 11.346 5.776 15.17 10.927" fill="none" stroke="#000" stroke-width="12" stroke-linecap="round" stroke-linejoin="round"/></svg>

<svg
    xmlns="http://www.w3.org/2000/svg"
    viewBox="0 0 192 192"
    id="vector">
    <path
        id="path"
        d="M 16.5 95.46 C 25.706 82.807 37.687 72.515 51.488 65.404 C 65.289 58.294 80.532 54.559 96 54.5 C 111.461 54.55 126.699 58.271 140.5 65.367 C 154.3 72.463 166.286 82.74 175.5 95.377 M 45.038 117.082 C 50.866 108.83 58.511 102.081 67.36 97.375 C 76.208 92.67 86.018 90.138 96 89.983 C 106.01 90.128 115.848 92.664 124.72 97.385 C 133.592 102.106 141.253 108.881 147.084 117.165 M 71.538 137.5 C 75.362 132.349 80.664 128.53 86.708 126.573 C 92.753 124.616 99.247 124.616 105.292 126.573 C 111.336 128.53 116.638 132.349 120.462 137.5"
        fill="none"
        stroke="#000000"
        stroke-width="12"
        stroke-linecap="round"
        stroke-linejoin="round"/>
</svg>
